src/icons/svg/ArrowDownCaret.svg

<svg width="24" height="24" viewBox="0 0 24 24" fill="none" xmlns="http://www.w3.org/2000/svg">
<path d="M18.58 10.276C18.092 10.778 12.946 15.68 12.946 15.68C12.684 15.948 12.342 16.08 12 16.08C11.656 16.08 11.315 15.946 11.054 15.68C11.054 15.68 5.90802 10.778 5.41902 10.276C4.93102 9.774 4.89702 8.874 5.41902 8.337C5.94202 7.801 6.67102 7.759 7.31002 8.337L12 12.835L16.688 8.339C17.328 7.762 18.058 7.803 18.58 8.339C19.103 8.875 19.071 9.777 18.58 10.277V10.276Z" fill="#1C2125"/>
</svg>

<!-- Generated by IcoMoon.io -->
<svg version="1.1" xmlns="http://www.w3.org/2000/svg" width="24" height="24" viewBox="0 0 24 24">
<title>arrow-down-caret</title>
<path fill="#444" d="M18.58 10.276c-0.488 0.502-5.634 5.404-5.634 5.404-0.262 0.268-0.604 0.4-0.946 0.4-0.344 0-0.685-0.134-0.946-0.4 0 0-5.146-4.902-5.635-5.404-0.488-0.502-0.522-1.402 0-1.939 0.523-0.536 1.252-0.578 1.891 0l4.69 4.498 4.688-4.496c0.64-0.577 1.37-0.536 1.892 0 0.523 0.536 0.491 1.438 0 1.938z"></path>
</svg>
